static/img/kroki/f18c41da17f8771c3477d6ce26ce5081.svg

<?xml version="1.0" encoding="us-ascii" standalone="no"?><svg xmlns="http://www.w3.org/2000/svg" xmlns:xlink="http://www.w3.org/1999/xlink" contentStyleType="text/css" height="1059px" preserveAspectRatio="none" style="width:451px;height:1059px;" version="1.1" viewBox="0 0 451 1059" width="451px" zoomAndPan="magnify"><defs/><g><!--class aws_resource--><g id="elem_aws_resource"><rect codeLine="22" fill="#3D176E" height="74.0859" id="aws_resource" rx="2.5" ry="2.5" style="stroke:#000D19;stroke-width:0.5;" width="155" x="148" y="438.76"/><ellipse cx="163" cy="458.6545" fill="#ADD1B2" rx="11" ry="11" style="stroke:#181818;stroke-width:1.0;"/><path d="M165.9688,464.2952 Q165.3906,464.592 164.75,464.7327 Q164.1094,464.8889 163.4063,464.8889 Q160.9063,464.8889 159.5781,463.2483 Q158.2656,461.592 158.2656,458.467 Q158.2656,455.342 159.5781,453.6858 Q160.9063,452.0295 163.4063,452.0295 Q164.1094,452.0295 164.75,452.1858 Q165.4063,452.342 165.9688,452.6389 L165.9688,455.3577 Q165.3438,454.7795 164.75,454.5139 Q164.1563,454.2327 163.5313,454.2327 Q162.1875,454.2327 161.5,455.3108 Q160.8125,456.3733 160.8125,458.467 Q160.8125,460.5608 161.5,461.6389 Q162.1875,462.7014 163.5313,462.7014 Q164.1563,462.7014 164.75,462.4358 Q165.3438,462.1545 165.9688,461.5764 L165.9688,464.2952 Z " fill="#000000"/><text fill="#D9B8FF" font-family="Helvetica" font-size="17" lengthAdjust="spacing" textLength="113" x="182" y="464.5398">aws_resource</text><line style="stroke:#000D19;stroke-width:0.5;" x1="149" x2="302" y1="478.5491" y2="478.5491"/><text fill="#D9B8FF" font-family="sans-serif" font-size="14" font-weight="bold" lengthAdjust="spacing" textLength="26" x="159" y="500.5442">arn</text><text fill="#D9B8FF" font-family="sans-serif" font-size="14" lengthAdjust="spacing" textLength="48" x="185" y="500.5442">: string</text></g><!--class aws_sagemaker_pipeline--><g id="elem_aws_sagemaker_pipeline"><rect codeLine="25" fill="#3D176E" height="231.8672" id="aws_sagemaker_pipeline" rx="2.5" ry="2.5" style="stroke:#000D19;stroke-width:0.5;" width="437" x="7" y="633.84"/><ellipse cx="111.75" cy="653.7345" fill="#ADD1B2" rx="11" ry="11" style="stroke:#181818;stroke-width:1.0;"/><path d="M114.7188,659.3752 Q114.1406,659.672 113.5,659.8127 Q112.8594,659.9689 112.1563,659.9689 Q109.6563,659.9689 108.3281,658.3283 Q107.0156,656.672 107.0156,653.547 Q107.0156,650.422 108.3281,648.7658 Q109.6563,647.1095 112.1563,647.1095 Q112.8594,647.1095 113.5,647.2658 Q114.1563,647.422 114.7188,647.7189 L114.7188,650.4377 Q114.0938,649.8595 113.5,649.5939 Q112.9063,649.3127 112.2813,649.3127 Q110.9375,649.3127 110.25,650.3908 Q109.5625,651.4533 109.5625,653.547 Q109.5625,655.6408 110.25,656.7189 Q110.9375,657.7814 112.2813,657.7814 Q112.9063,657.7814 113.5,657.5158 Q114.0938,657.2345 114.7188,656.6564 L114.7188,659.3752 Z " fill="#000000"/><text fill="#D9B8FF" font-family="Helvetica" font-size="17" lengthAdjust="spacing" textLength="209" x="137.25" y="659.6198">aws_sagemaker_pipeline</text><line style="stroke:#000D19;stroke-width:0.5;" x1="8" x2="443" y1="673.6291" y2="673.6291"/><text fill="#D9B8FF" font-family="sans-serif" font-size="14" font-weight="bold" lengthAdjust="spacing" textLength="156" x="18" y="695.6242">pipeline_created_by</text><text fill="#D9B8FF" font-family="sans-serif" font-size="14" lengthAdjust="spacing" textLength="217" x="174" y="695.6242">: aws_sagemaker_user_context</text><text fill="#D9B8FF" font-family="sans-serif" font-size="14" font-weight="bold" lengthAdjust="spacing" textLength="143" x="18" y="721.9211">pipeline_definition</text><text fill="#D9B8FF" font-family="sans-serif" font-size="14" lengthAdjust="spacing" textLength="48" x="161" y="721.9211">: string</text><text fill="#D9B8FF" font-family="sans-serif" font-size="14" font-weight="bold" lengthAdjust="spacing" textLength="158" x="18" y="748.2179">pipeline_description</text><text fill="#D9B8FF" font-family="sans-serif" font-size="14" lengthAdjust="spacing" textLength="48" x="176" y="748.2179">: string</text><text fill="#D9B8FF" font-family="sans-serif" font-size="14" font-weight="bold" lengthAdjust="spacing" textLength="174" x="18" y="774.5148">pipeline_display_name</text><text fill="#D9B8FF" font-family="sans-serif" font-size="14" lengthAdjust="spacing" textLength="48" x="192" y="774.5148">: string</text><text fill="#D9B8FF" font-family="sans-serif" font-size="14" font-weight="bold" lengthAdjust="spacing" textLength="198" x="18" y="800.8117">pipeline_last_modified_by</text><text fill="#D9B8FF" font-family="sans-serif" font-size="14" lengthAdjust="spacing" textLength="217" x="216" y="800.8117">: aws_sagemaker_user_context</text><text fill="#D9B8FF" font-family="sans-serif" font-size="14" font-weight="bold" lengthAdjust="spacing" textLength="265" x="18" y="827.1086">pipeline_parallelism_configuration</text><text fill="#D9B8FF" font-family="sans-serif" font-size="14" lengthAdjust="spacing" textLength="44" x="283" y="827.1086">: int64</text><text fill="#D9B8FF" font-family="sans-serif" font-size="14" font-weight="bold" lengthAdjust="spacing" textLength="118" x="18" y="853.4054">pipeline_status</text><text fill="#D9B8FF" font-family="sans-serif" font-size="14" lengthAdjust="spacing" textLength="48" x="136" y="853.4054">: string</text></g><!--class aws_sagemaker_user_context--><g id="elem_aws_sagemaker_user_context"><rect codeLine="34" fill="#3D176E" height="126.6797" id="aws_sagemaker_user_context" rx="2.5" ry="2.5" style="stroke:#000D19;stroke-width:0.5;" width="293" x="79" y="925.71"/><ellipse cx="94" cy="945.6045" fill="#ADD1B2" rx="11" ry="11" style="stroke:#181818;stroke-width:1.0;"/><path d="M96.9688,951.2452 Q96.3906,951.542 95.75,951.6827 Q95.1094,951.8389 94.4063,951.8389 Q91.9063,951.8389 90.5781,950.1983 Q89.2656,948.542 89.2656,945.417 Q89.2656,942.292 90.5781,940.6358 Q91.9063,938.9795 94.4063,938.9795 Q95.1094,938.9795 95.75,939.1358 Q96.4063,939.292 96.9688,939.5889 L96.9688,942.3077 Q96.3438,941.7295 95.75,941.4639 Q95.1563,941.1827 94.5313,941.1827 Q93.1875,941.1827 92.5,942.2608 Q91.8125,943.3233 91.8125,945.417 Q91.8125,947.5108 92.5,948.5889 Q93.1875,949.6514 94.5313,949.6514 Q95.1563,949.6514 95.75,949.3858 Q96.3438,949.1045 96.9688,948.5264 L96.9688,951.2452 Z " fill="#000000"/><text fill="#D9B8FF" font-family="Helvetica" font-size="17" lengthAdjust="spacing" textLength="251" x="113" y="951.4898">aws_sagemaker_user_context</text><line style="stroke:#000D19;stroke-width:0.5;" x1="80" x2="371" y1="965.4991" y2="965.4991"/><text fill="#D9B8FF" font-family="sans-serif" font-size="14" font-weight="bold" lengthAdjust="spacing" textLength="78" x="90" y="987.4942">domain_id</text><text fill="#D9B8FF" font-family="sans-serif" font-size="14" lengthAdjust="spacing" textLength="48" x="168" y="987.4942">: string</text><text fill="#D9B8FF" font-family="sans-serif" font-size="14" font-weight="bold" lengthAdjust="spacing" textLength="127" x="90" y="1013.7911">user_profile_arn</text><text fill="#D9B8FF" font-family="sans-serif" font-size="14" lengthAdjust="spacing" textLength="48" x="217" y="1013.7911">: string</text><text fill="#D9B8FF" font-family="sans-serif" font-size="14" font-weight="bold" lengthAdjust="spacing" textLength="144" x="90" y="1040.0879">user_profile_name</text><text fill="#D9B8FF" font-family="sans-serif" font-size="14" lengthAdjust="spacing" textLength="48" x="234" y="1040.0879">: string</text></g><!--class resource--><g id="elem_resource"><rect codeLine="39" fill="#3D176E" height="310.7578" id="resource" rx="2.5" ry="2.5" style="stroke:#000D19;stroke-width:0.5;" width="227" x="112" y="7"/><ellipse cx="180.75" cy="26.8945" fill="#ADD1B2" rx="11" ry="11" style="stroke:#181818;stroke-width:1.0;"/><path d="M183.7188,32.5352 Q183.1406,32.832 182.5,32.9727 Q181.8594,33.1289 181.1563,33.1289 Q178.6563,33.1289 177.3281,31.4883 Q176.0156,29.832 176.0156,26.707 Q176.0156,23.582 177.3281,21.9258 Q178.6563,20.2695 181.1563,20.2695 Q181.8594,20.2695 182.5,20.4258 Q183.1563,20.582 183.7188,20.8789 L183.7188,23.5977 Q183.0938,23.0195 182.5,22.7539 Q181.9063,22.4727 181.2813,22.4727 Q179.9375,22.4727 179.25,23.5508 Q178.5625,24.6133 178.5625,26.707 Q178.5625,28.8008 179.25,29.8789 Q179.9375,30.9414 181.2813,30.9414 Q181.9063,30.9414 182.5,30.6758 Q183.0938,30.3945 183.7188,29.8164 L183.7188,32.5352 Z " fill="#000000"/><text fill="#D9B8FF" font-family="Helvetica" font-size="17" lengthAdjust="spacing" textLength="71" x="206.25" y="32.7798">resource</text><line style="stroke:#000D19;stroke-width:0.5;" x1="113" x2="338" y1="46.7891" y2="46.7891"/><text fill="#D9B8FF" font-family="sans-serif" font-size="14" font-weight="bold" lengthAdjust="spacing" textLength="29" x="123" y="68.7842">age</text><text fill="#D9B8FF" font-family="sans-serif" font-size="14" lengthAdjust="spacing" textLength="66" x="152" y="68.7842">: duration</text><text fill="#D9B8FF" font-family="sans-serif" font-size="14" font-weight="bold" lengthAdjust="spacing" textLength="43" x="123" y="95.0811">atime</text><text fill="#D9B8FF" font-family="sans-serif" font-size="14" lengthAdjust="spacing" textLength="70" x="166" y="95.0811">: datetime</text><text fill="#D9B8FF" font-family="sans-serif" font-size="14" font-weight="bold" lengthAdjust="spacing" textLength="43" x="123" y="121.3779">ctime</text><text fill="#D9B8FF" font-family="sans-serif" font-size="14" lengthAdjust="spacing" textLength="70" x="166" y="121.3779">: datetime</text><text fill="#D9B8FF" font-family="sans-serif" font-size="14" font-weight="bold" lengthAdjust="spacing" textLength="14" x="123" y="147.6748">id</text><text fill="#D9B8FF" font-family="sans-serif" font-size="14" lengthAdjust="spacing" textLength="48" x="137" y="147.6748">: string</text><text fill="#D9B8FF" font-family="sans-serif" font-size="14" font-weight="bold" lengthAdjust="spacing" textLength="33" x="123" y="173.9717">kind</text><text fill="#D9B8FF" font-family="sans-serif" font-size="14" lengthAdjust="spacing" textLength="48" x="156" y="173.9717">: string</text><text fill="#D9B8FF" font-family="sans-serif" font-size="14" font-weight="bold" lengthAdjust="spacing" textLength="90" x="123" y="200.2686">last_access</text><text fill="#D9B8FF" font-family="sans-serif" font-size="14" lengthAdjust="spacing" textLength="66" x="213" y="200.2686">: duration</text><text fill="#D9B8FF" font-family="sans-serif" font-size="14" font-weight="bold" lengthAdjust="spacing" textLength="90" x="123" y="226.5654">last_update</text><text fill="#D9B8FF" font-family="sans-serif" font-size="14" lengthAdjust="spacing" textLength="66" x="213" y="226.5654">: duration</text><text fill="#D9B8FF" font-family="sans-serif" font-size="14" font-weight="bold" lengthAdjust="spacing" textLength="48" x="123" y="252.8623">mtime</text><text fill="#D9B8FF" font-family="sans-serif" font-size="14" lengthAdjust="spacing" textLength="70" x="171" y="252.8623">: datetime</text><text fill="#D9B8FF" font-family="sans-serif" font-size="14" font-weight="bold" lengthAdjust="spacing" textLength="43" x="123" y="279.1592">name</text><text fill="#D9B8FF" font-family="sans-serif" font-size="14" lengthAdjust="spacing" textLength="48" x="166" y="279.1592">: string</text><text fill="#D9B8FF" font-family="sans-serif" font-size="14" font-weight="bold" lengthAdjust="spacing" textLength="34" x="123" y="305.4561">tags</text><text fill="#D9B8FF" font-family="sans-serif" font-size="14" lengthAdjust="spacing" textLength="171" x="157" y="305.4561">: dictionary[string, string]</text></g><!--reverse link resource to aws_resource--><g id="link_resource_aws_resource"><path codeLine="51" d="M225.5,336.18 C225.5,381.21 225.5,408.34 225.5,438.51 " fill="none" id="resource-backto-aws_resource" style="stroke:#FFAF37;stroke-width:2.0;"/><polygon fill="none" points="225.5,318.18,219.5,336.18,231.5,336.18,225.5,318.18" style="stroke:#FFAF37;stroke-width:2.0;"/></g><!--reverse link aws_resource to aws_sagemaker_pipeline--><g id="link_aws_resource_aws_sagemaker_pipeline"><path codeLine="52" d="M225.5,531.2 C225.5,562.1 225.5,590.2 225.5,633.44 " fill="none" id="aws_resource-backto-aws_sagemaker_pipeline" style="stroke:#FFAF37;stroke-width:2.0;"/><polygon fill="none" points="225.5,513.2,219.5,531.2,231.5,531.2,225.5,513.2" style="stroke:#FFAF37;stroke-width:2.0;"/></g><!--link aws_sagemaker_pipeline to aws_sagemaker_user_context--><g id="link_aws_sagemaker_pipeline_aws_sagemaker_user_context"><path codeLine="53" d="M225.5,865.94 C225.5,886.48 225.5,901.17 225.5,919.52 " fill="none" id="aws_sagemaker_pipeline-to-aws_sagemaker_user_context" style="stroke:#FFAF37;stroke-width:2.0;"/><polygon fill="#FFAF37" points="225.5,925.52,229.5,916.52,225.5,920.52,221.5,916.52,225.5,925.52" style="stroke:#FFAF37;stroke-width:2.0;"/></g><!--SRC=[bPHDYzim48Rl_XM2lOKQajrsiobbOHiexMKftTxAOYRIo1bYIsOaDqq__djbEzdATZxenTZpFffvPpHuJGe5bfNVYHBB5R9Bt8PC1GobU62sswKjB8ihhK7Vp8VY1slyHU0HIXGViVYEdYGCYQzhaXk3pedhI7eFSfEphOtgqdi6uuA4naVKiW3d7hndMjKU8pDgiRhJUaWEarxTgDdy5aUOPOMyHwRJgPejXiZ5KcVxVY6Uw2UAMJoqH-jnP7DKegNEkco8oEIeqOD-qkDdK8fCBjv4iI-T9pR8lVZJ6fJTDhI6miLbd4T6wtSLBaTTuU9EwVbH-DCfM3QJ4x1r6QEpDKiKlvB91DXC9cz30WucaZyHvY374ZR8MKKL5cIw0uUFJ3A2HvMjTas2_edQXOSCGy8VFZwZK9CXJpOksjETPAhE0EIg0dQP2SC_JWJ_FYkj8at_QQuPPL64TrSsigQyPZXO8UDlNyUqy-1hTt5sSR5sVigMG2OZrRFVOXLRJGLc_JiPY8FE3rNxbvgtYDhxRoAUkcCgt5dp7cBoI6nWAonOFz1E5wGCFvr1XLQfgoRNG2cFr1dTduUyoqYoEGQy-zPfh_RCSsZrfSbtlzCqxIrpqjliV_fuYvCJovsczsVkxYy0]--></g></svg>

<svg xmlns="http://www.w3.org/2000/svg" width="451" height="1059" viewBox="0 0 451 1059"><rect width="155" height="74.086" x="148" y="438.76" fill="#3D176E" rx="2.5" ry="2.5" style="stroke:#000d19;stroke-width:.5"/><circle cx="163" cy="458.654" r="11" fill="#ADD1B2" style="stroke:#181818;stroke-width:1"/><path d="M165.969 464.295q-.578.297-1.219.438-.64.156-1.344.156-2.5 0-3.828-1.64-1.312-1.657-1.312-4.782t1.312-4.781q1.328-1.656 3.828-1.656.703 0 1.344.156.656.156 1.219.453v2.719q-.625-.579-1.219-.844-.594-.281-1.219-.281-1.344 0-2.031 1.078-.687 1.062-.687 3.156t.687 3.172q.688 1.062 2.031 1.062.625 0 1.219-.265.594-.281 1.219-.86z"/><text x="182" y="464.54" fill="#D9B8FF" font-family="Helvetica" font-size="17" textLength="113">aws_resource</text><path d="M149 478.549h153" style="stroke:#000d19;stroke-width:.5"/><text x="159" y="500.544" fill="#D9B8FF" font-family="sans-serif" font-size="14" font-weight="bold" textLength="26">arn</text><text x="185" y="500.544" fill="#D9B8FF" font-family="sans-serif" font-size="14" textLength="48">: string</text><rect width="437" height="231.867" x="7" y="633.84" fill="#3D176E" rx="2.5" ry="2.5" style="stroke:#000d19;stroke-width:.5"/><circle cx="111.75" cy="653.735" r="11" fill="#ADD1B2" style="stroke:#181818;stroke-width:1"/><path d="M114.719 659.375q-.578.297-1.219.438-.64.156-1.344.156-2.5 0-3.828-1.64-1.312-1.657-1.312-4.782t1.312-4.781q1.328-1.656 3.828-1.656.703 0 1.344.156.656.156 1.219.453v2.719q-.625-.578-1.219-.844-.594-.281-1.219-.281-1.344 0-2.031 1.078-.687 1.062-.687 3.156t.687 3.172q.688 1.062 2.031 1.062.625 0 1.219-.265.594-.281 1.219-.86z"/><text x="137.25" y="659.62" fill="#D9B8FF" font-family="Helvetica" font-size="17" textLength="209">aws_sagemaker_pipeline</text><path d="M8 673.629h435" style="stroke:#000d19;stroke-width:.5"/><text x="18" y="695.624" fill="#D9B8FF" font-family="sans-serif" font-size="14" font-weight="bold" textLength="156">pipeline_created_by</text><text x="174" y="695.624" fill="#D9B8FF" font-family="sans-serif" font-size="14" textLength="217">: aws_sagemaker_user_context</text><text x="18" y="721.921" fill="#D9B8FF" font-family="sans-serif" font-size="14" font-weight="bold" textLength="143">pipeline_definition</text><text x="161" y="721.921" fill="#D9B8FF" font-family="sans-serif" font-size="14" textLength="48">: string</text><text x="18" y="748.218" fill="#D9B8FF" font-family="sans-serif" font-size="14" font-weight="bold" textLength="158">pipeline_description</text><text x="176" y="748.218" fill="#D9B8FF" font-family="sans-serif" font-size="14" textLength="48">: string</text><text x="18" y="774.515" fill="#D9B8FF" font-family="sans-serif" font-size="14" font-weight="bold" textLength="174">pipeline_display_name</text><text x="192" y="774.515" fill="#D9B8FF" font-family="sans-serif" font-size="14" textLength="48">: string</text><text x="18" y="800.812" fill="#D9B8FF" font-family="sans-serif" font-size="14" font-weight="bold" textLength="198">pipeline_last_modified_by</text><text x="216" y="800.812" fill="#D9B8FF" font-family="sans-serif" font-size="14" textLength="217">: aws_sagemaker_user_context</text><text x="18" y="827.109" fill="#D9B8FF" font-family="sans-serif" font-size="14" font-weight="bold" textLength="265">pipeline_parallelism_configuration</text><text x="283" y="827.109" fill="#D9B8FF" font-family="sans-serif" font-size="14" textLength="44">: int64</text><text x="18" y="853.405" fill="#D9B8FF" font-family="sans-serif" font-size="14" font-weight="bold" textLength="118">pipeline_status</text><text x="136" y="853.405" fill="#D9B8FF" font-family="sans-serif" font-size="14" textLength="48">: string</text><rect width="293" height="126.68" x="79" y="925.71" fill="#3D176E" rx="2.5" ry="2.5" style="stroke:#000d19;stroke-width:.5"/><circle cx="94" cy="945.605" r="11" fill="#ADD1B2" style="stroke:#181818;stroke-width:1"/><path d="M96.969 951.245q-.578.297-1.219.438-.64.156-1.344.156-2.5 0-3.828-1.64-1.312-1.657-1.312-4.782t1.312-4.781q1.328-1.656 3.828-1.656.703 0 1.344.156.656.156 1.219.453v2.719q-.625-.578-1.219-.844-.594-.281-1.219-.281-1.344 0-2.031 1.078-.687 1.062-.687 3.156t.687 3.172q.688 1.062 2.031 1.062.625 0 1.219-.265.594-.281 1.219-.86z"/><text x="113" y="951.49" fill="#D9B8FF" font-family="Helvetica" font-size="17" textLength="251">aws_sagemaker_user_context</text><path d="M80 965.499h291" style="stroke:#000d19;stroke-width:.5"/><text x="90" y="987.494" fill="#D9B8FF" font-family="sans-serif" font-size="14" font-weight="bold" textLength="78">domain_id</text><text x="168" y="987.494" fill="#D9B8FF" font-family="sans-serif" font-size="14" textLength="48">: string</text><text x="90" y="1013.791" fill="#D9B8FF" font-family="sans-serif" font-size="14" font-weight="bold" textLength="127">user_profile_arn</text><text x="217" y="1013.791" fill="#D9B8FF" font-family="sans-serif" font-size="14" textLength="48">: string</text><text x="90" y="1040.088" fill="#D9B8FF" font-family="sans-serif" font-size="14" font-weight="bold" textLength="144">user_profile_name</text><text x="234" y="1040.088" fill="#D9B8FF" font-family="sans-serif" font-size="14" textLength="48">: string</text><rect width="227" height="310.758" x="112" y="7" fill="#3D176E" rx="2.5" ry="2.5" style="stroke:#000d19;stroke-width:.5"/><circle cx="180.75" cy="26.895" r="11" fill="#ADD1B2" style="stroke:#181818;stroke-width:1"/><path d="M183.719 32.535q-.578.297-1.219.438-.64.156-1.344.156-2.5 0-3.828-1.64-1.312-1.657-1.312-4.782t1.312-4.781q1.328-1.656 3.828-1.656.703 0 1.344.156.656.156 1.219.453v2.719q-.625-.578-1.219-.844-.594-.281-1.219-.281-1.344 0-2.031 1.078-.687 1.062-.687 3.156t.687 3.172q.688 1.062 2.031 1.062.625 0 1.219-.265.594-.281 1.219-.86z"/><text x="206.25" y="32.78" fill="#D9B8FF" font-family="Helvetica" font-size="17" textLength="71">resource</text><path d="M113 46.789h225" style="stroke:#000d19;stroke-width:.5"/><text x="123" y="68.784" fill="#D9B8FF" font-family="sans-serif" font-size="14" font-weight="bold" textLength="29">age</text><text x="152" y="68.784" fill="#D9B8FF" font-family="sans-serif" font-size="14" textLength="66">: duration</text><text x="123" y="95.081" fill="#D9B8FF" font-family="sans-serif" font-size="14" font-weight="bold" textLength="43">atime</text><text x="166" y="95.081" fill="#D9B8FF" font-family="sans-serif" font-size="14" textLength="70">: datetime</text><text x="123" y="121.378" fill="#D9B8FF" font-family="sans-serif" font-size="14" font-weight="bold" textLength="43">ctime</text><text x="166" y="121.378" fill="#D9B8FF" font-family="sans-serif" font-size="14" textLength="70">: datetime</text><text x="123" y="147.675" fill="#D9B8FF" font-family="sans-serif" font-size="14" font-weight="bold" textLength="14">id</text><text x="137" y="147.675" fill="#D9B8FF" font-family="sans-serif" font-size="14" textLength="48">: string</text><text x="123" y="173.972" fill="#D9B8FF" font-family="sans-serif" font-size="14" font-weight="bold" textLength="33">kind</text><text x="156" y="173.972" fill="#D9B8FF" font-family="sans-serif" font-size="14" textLength="48">: string</text><text x="123" y="200.269" fill="#D9B8FF" font-family="sans-serif" font-size="14" font-weight="bold" textLength="90">last_access</text><text x="213" y="200.269" fill="#D9B8FF" font-family="sans-serif" font-size="14" textLength="66">: duration</text><text x="123" y="226.565" fill="#D9B8FF" font-family="sans-serif" font-size="14" font-weight="bold" textLength="90">last_update</text><text x="213" y="226.565" fill="#D9B8FF" font-family="sans-serif" font-size="14" textLength="66">: duration</text><text x="123" y="252.862" fill="#D9B8FF" font-family="sans-serif" font-size="14" font-weight="bold" textLength="48">mtime</text><text x="171" y="252.862" fill="#D9B8FF" font-family="sans-serif" font-size="14" textLength="70">: datetime</text><text x="123" y="279.159" fill="#D9B8FF" font-family="sans-serif" font-size="14" font-weight="bold" textLength="43">name</text><text x="166" y="279.159" fill="#D9B8FF" font-family="sans-serif" font-size="14" textLength="48">: string</text><text x="123" y="305.456" fill="#D9B8FF" font-family="sans-serif" font-size="14" font-weight="bold" textLength="34">tags</text><text x="157" y="305.456" fill="#D9B8FF" font-family="sans-serif" font-size="14" textLength="171">: dictionary[string, string]</text><path fill="none" d="M225.5 336.18v102.33m0-120.33-6 18h12zm0 213.02v102.24m0-120.24-6 18h12zm0 352.74v53.58" style="stroke:#ffaf37;stroke-width:2"/><path fill="#FFAF37" d="m225.5 925.52 4-9-4 4-4-4z" style="stroke:#ffaf37;stroke-width:2"/></svg>
